src/pos-icons/folder-marker-outline.svg

<svg height="24" viewBox="0 0 24 24" width="24" xmlns="http://www.w3.org/2000/svg"><path d="m18.5 12c1.9 0 3.5 1.6 3.5 3.5 0 2.6-3.5 6.5-3.5 6.5s-3.5-3.9-3.5-6.5c0-1.9 1.6-3.5 3.5-3.5m0 4.8c.7 0 1.3-.6 1.2-1.2 0-.6-.6-1.2-1.2-1.2s-1.2.5-1.2 1.2c0 .6.5 1.2 1.2 1.2m1.5-8.8h-16v10h9.5c.29.68.63 1.35 1 2h-10.5c-1.11 0-2-.9-2-2v-12c0-1.11.89-2 2-2h6l2 2h8c1.1 0 2 .89 2 2v3.34c-.58-.5-1.26-.89-2-1.11z"/></svg>

<?xml version="1.0" encoding="UTF-8"?><!DOCTYPE svg PUBLIC "-//W3C//DTD SVG 1.1//EN" "http://www.w3.org/Graphics/SVG/1.1/DTD/svg11.dtd"><svg xmlns="http://www.w3.org/2000/svg" xmlns:xlink="http://www.w3.org/1999/xlink" version="1.1" id="mdi-folder-marker-outline" width="24" height="24" viewBox="0 0 24 24"><path d="M18.5 12C20.4 12 22 13.6 22 15.5C22 18.1 18.5 22 18.5 22C18.5 22 15 18.1 15 15.5C15 13.6 16.6 12 18.5 12M18.5 16.8C19.2 16.8 19.8 16.2 19.7 15.6C19.7 15 19.1 14.4 18.5 14.4C17.9 14.4 17.3 14.9 17.3 15.6C17.3 16.2 17.8 16.8 18.5 16.8M20 8H4V18H13.5C13.79 18.68 14.13 19.35 14.5 20H4C2.89 20 2 19.1 2 18L2 6C2 4.89 2.89 4 4 4H10L12 6H20C21.1 6 22 6.89 22 8V11.34C21.42 10.84 20.74 10.45 20 10.23V8Z" /></svg>
